X: 23002
T: Last Day Of January, The
R: jig
M: 6/8
K: Adorian
|:EAB c2d|eag edB|GBd g3|dBG Bcd|
EAB c2d|eag edB|g3 age|1 dBG A2G:|2 dBG A2E||
|:Ace a2b|c'ba gdc|Bcd g3|dBG Bcd|
Ace a2b|c'ba gdc|g3 age|1 dBG A2G:|2 dBG A2E||

